X: 198
T: Dui hua
L: 1/8
M: 2/4
K: G
d> e g a [I:setbarnb 1]| 
e dB2 | 
d> e d B | 
A/ B/ GA2 | 
d B d d/ d/ | 
G BA2 | 
d B d d/ d/ | 
G BA2 | 
d B/ d/A2 | 
G> BA2 | 
B> B B B | 
d B/ d/A2 | 
d f/ f/ e f | 
d f e d | 
c c c c | 
A2d2 | 
B> AG2 | 
B> d F E | 
D4 | 
B> d B d | 
g> ed2 | 
B> d B d | 
g> ed2 | 
B d A B | 
G2G2 | 
d> B A E | 
D4 |]

@@@ Tune index: 9072
